X:225
T:BB's Reel
M:4/4
L:1/8
K:G
A | B2 DD E2 D2 | B2 DD E2 D2 | c3 B A3 G | F2 E2 D4 |
B2 DD E2 D2 | B2 DD E2 D2 | c3 B A3 G | FD EF G3 :|
E | D2 DD E2 EE | D2 G2 B4 | A2 AG F2 A2 | G2 E2 D3 E |
D2 DD E2 EE | D2 G2 B4 | A2 AG F2 A2 | G2 B2 G3 :||
